img/advantages/01.svg

<svg width="100" height="100" viewBox="0 0 100 100" fill="none" xmlns="http://www.w3.org/2000/svg">
<path fill-rule="evenodd" clip-rule="evenodd" d="M44.4287 10.4118C47.5709 7.17524 52.7662 7.17525 55.9084 10.4118L57.7015 12.2586C59.2227 13.8255 61.3183 14.7024 63.5021 14.6858L66.0897 14.6661C70.5547 14.6322 74.1832 18.2599 74.1503 22.7249L74.1291 25.5902C74.1133 27.7328 74.9577 29.7922 76.4731 31.3071L78.5085 33.3417C81.6341 36.4662 81.6341 41.5331 78.5085 44.6575L76.4731 46.6922C74.9577 48.207 74.1133 50.2665 74.1291 52.4091L74.1503 55.2743C74.1832 59.7394 70.5547 63.3671 66.0897 63.3331L63.5021 63.3135C61.3183 63.2969 59.2227 64.1738 57.7015 65.7406L55.9084 67.5875C52.7662 70.824 47.5709 70.824 44.4287 67.5875L42.6356 65.7406C41.1144 64.1738 39.0188 63.2969 36.835 63.3135L34.2474 63.3331C29.7824 63.3671 26.1539 59.7394 26.1868 55.2743L26.208 52.4091C26.2238 50.2665 25.3794 48.207 23.864 46.6922L21.8286 44.6575C18.703 41.5331 18.703 36.4662 21.8286 33.3417L23.864 31.3071C25.3794 29.7922 26.2238 27.7328 26.208 25.5901L26.1868 22.7249C26.1539 18.2599 29.7824 14.6322 34.2474 14.6661L36.835 14.6858C39.0188 14.7024 41.1144 13.8255 42.6356 12.2586L44.4287 10.4118ZM51.8659 38.5712L50.0301 36.7346C49.6095 36.314 49.0396 36.077 48.4448 36.0754C47.8501 36.0738 47.2789 36.3078 46.8562 36.7262L34.0923 48.5056C33.6276 48.9437 33.3224 49.502 33.2943 50.127C33.2807 50.4371 33.3313 50.7465 33.4427 51.0362C33.5541 51.3258 33.724 51.5893 33.9419 51.8103L36.684 54.5827L36.6863 54.5853L36.689 54.5877C37.1127 55.01 37.6861 55.2481 38.2844 55.25H38.3673C38.9924 55.2268 39.5521 54.9336 39.9965 54.4646L51.8582 41.7592C52.0685 41.5506 52.2356 41.3026 52.3499 41.0294C52.4642 40.7561 52.5233 40.463 52.5241 40.1668C52.5248 39.8706 52.467 39.5772 52.3541 39.3034C52.2411 39.0296 52.0752 38.7807 51.8659 38.5712ZM66.6203 34.8594L66.5985 34.8376L64.1889 32.4526C64.0477 32.3119 63.8801 32.2006 63.6957 32.125C63.5113 32.0495 63.3138 32.0112 63.1145 32.0124C62.7916 32.0127 62.477 32.1146 62.2152 32.3035C62.2152 32.2821 62.2173 32.261 62.2193 32.2412L62.2215 32.2177L62.2218 32.2138C62.2535 31.7567 62.3011 31.0684 61.8559 30.4445C61.3251 29.729 60.7422 29.0535 60.1122 28.4237L60.109 28.4202L60.1065 28.4181C59.17 27.4956 57.1316 25.7581 54.009 24.4848C52.8248 23.9988 51.5569 23.7491 50.2769 23.75C48.0578 23.75 46.3703 24.7513 45.7241 25.3447C45.3582 25.6942 45.0245 26.0759 44.7271 26.4852C44.585 26.6813 44.51 26.9181 44.5132 27.1603C44.5165 27.4025 44.5978 27.6372 44.7451 27.8294C44.8924 28.0217 45.0979 28.1613 45.3309 28.2274C45.5639 28.2936 45.8121 28.2828 46.0384 28.1966C46.2356 28.1229 46.4371 28.0611 46.6417 28.0117C47.0679 27.9215 47.5049 27.8943 47.939 27.9308C48.8664 28.0074 49.9633 28.468 50.4484 28.8512C51.2711 29.5128 51.6669 30.4044 51.7323 31.7403C51.745 32.0089 51.1895 33.0158 50.3261 34.1647C50.1616 34.3815 50.0813 34.6506 50.1 34.9221C50.1188 35.1936 50.2353 35.4491 50.428 35.6413L52.8475 38.0607C53.0508 38.2645 53.3245 38.3826 53.6122 38.3907C53.9 38.3988 54.1799 38.2963 54.3944 38.1043C55.0785 37.4933 56.1205 36.5722 56.4847 36.3465C57.0254 36.0139 57.4122 35.9499 57.5183 35.9387C57.7939 35.9117 58.071 35.9701 58.3122 36.106C58.3134 36.1181 58.312 36.1302 58.3083 36.1417C58.3059 36.1491 58.3026 36.156 58.2984 36.1624C58.296 36.1661 58.2933 36.1696 58.2904 36.1728L58.1624 36.2945L58.1413 36.3142C57.9999 36.455 57.8878 36.6225 57.8114 36.8069C57.735 36.9913 57.6958 37.189 57.6961 37.3886C57.6965 37.5882 57.7363 37.7857 57.8133 37.9699C57.8903 38.154 58.003 38.3211 58.1448 38.4615L60.5537 40.8458C60.6949 40.9864 60.8625 41.0976 61.0469 41.173C61.2314 41.2484 61.4289 41.2866 61.6281 41.2852C62.0282 41.2859 62.4125 41.1293 62.6983 40.8493L66.6006 36.9948C66.614 36.9814 66.6273 36.9674 66.64 36.9533C66.9018 36.6663 67.0453 36.2909 67.0416 35.9025C67.038 35.514 66.8874 35.1414 66.6203 34.8594Z" fill="#9EA3B5"/>
<path d="M56.0121 74.7414L65.0126 92.1376C65.7429 93.5491 67.7484 93.586 68.5302 92.2023L73.094 84.1243L68.461 76.543C67.885 75.6005 68.1821 74.3695 69.1246 73.7935C70.0672 73.2176 71.2981 73.5147 71.8741 74.4572L76.5589 82.1232L86.1257 83.0987C87.7068 83.2599 88.8352 81.6016 88.1049 80.19L78.5806 61.7813C76.2325 66.2979 71.4944 69.3741 66.0442 69.3327L63.4565 69.3131C62.9106 69.3089 62.3867 69.5281 62.0064 69.9198L60.2133 71.7667C58.9691 73.0483 57.541 74.0398 56.0121 74.7414Z" fill="#9EA3B5"/>
<path d="M22.6345 63.2442L13.8672 80.1898C13.1368 81.6014 14.2653 83.2598 15.8464 83.0985L25.2676 82.1378L29.9615 74.457C30.5375 73.5145 31.7684 73.2174 32.7109 73.7933C33.6534 74.3693 33.9506 75.6003 33.3746 76.5428L28.8125 84.0081L33.4419 92.2021C34.2236 93.5858 36.2292 93.5489 36.9595 92.1374L45.6815 75.2795C43.6418 74.5915 41.7296 73.4205 40.1238 71.7665L38.3307 69.9196C37.9504 69.5279 37.4265 69.3087 36.8806 69.3129L34.293 69.3325C29.454 69.3693 25.1765 66.9485 22.6345 63.2442Z" fill="#9EA3B5"/>
</svg>

<svg width="100" height="100" viewBox="0 0 100 100" fill="none" xmlns="http://www.w3.org/2000/svg"><path fill-rule="evenodd" clip-rule="evenodd" d="M44.429 10.412a8 8 0 0111.48 0l1.793 1.847a8 8 0 005.8 2.427l2.588-.02a8 8 0 018.06 8.059l-.02 2.865a8 8 0 002.343 5.717l2.035 2.035a8 8 0 010 11.316l-2.035 2.034a8 8 0 00-2.344 5.717l.021 2.865a8 8 0 01-8.06 8.06l-2.588-.02a8 8 0 00-5.8 2.427l-1.794 1.847a8 8 0 01-11.48 0l-1.792-1.847a8 8 0 00-5.801-2.428l-2.588.02a8 8 0 01-8.06-8.059l.021-2.865a8 8 0 00-2.344-5.717l-2.035-2.035a8 8 0 010-11.315l2.035-2.035a8 8 0 002.344-5.717l-.021-2.865a8 8 0 018.06-8.059l2.588.02a8 8 0 005.8-2.427l1.794-1.847zm7.437 28.16l-1.836-1.837a2.25 2.25 0 00-3.174-.009l-12.764 11.78c-.464.438-.77.996-.798 1.621a2.257 2.257 0 00.648 1.683l2.742 2.773.002.002.003.003c.424.422.997.66 1.595.662h.083c.625-.023 1.185-.316 1.63-.785l11.861-12.706a2.252 2.252 0 00.008-3.188zm14.754-3.713l-.022-.021-2.41-2.385a1.51 1.51 0 00-1.074-.44 1.54 1.54 0 00-.899.29c0-.02.002-.042.004-.062l.002-.023v-.004c.033-.457.08-1.146-.365-1.77a18.14 18.14 0 00-1.744-2.02l-.003-.004-.003-.002c-.936-.922-2.974-2.66-6.097-3.933a9.812 9.812 0 00-3.732-.735c-2.22 0-3.907 1.001-4.553 1.595-.366.35-.7.73-.997 1.14a1.125 1.125 0 001.311 1.712 5.23 5.23 0 01.604-.185 4.46 4.46 0 011.297-.081c.927.076 2.024.537 2.51.92.822.662 1.218 1.553 1.283 2.89.013.268-.542 1.275-1.406 2.424a1.125 1.125 0 00.102 1.476l2.42 2.42a1.125 1.125 0 001.546.043c.684-.61 1.727-1.532 2.09-1.758.541-.332.928-.396 1.034-.407a1.35 1.35 0 01.794.167.088.088 0 01-.022.067l-.128.121-.02.02a1.512 1.512 0 00.003 2.148l2.409 2.384a1.508 1.508 0 001.074.44c.4 0 .785-.157 1.07-.437l3.903-3.854.039-.042a1.538 1.538 0 00-.02-2.094z" fill="#9EA3B5"/><path d="M56.012 74.741l9 17.397c.73 1.411 2.736 1.448 3.518.064l4.564-8.078-4.633-7.581a2 2 0 113.413-2.086l4.685 7.666 9.567.976c1.58.16 2.71-1.497 1.979-2.909L78.58 61.781c-2.349 4.517-7.087 7.593-12.537 7.552l-2.587-.02a2 2 0 00-1.45.607l-1.794 1.847a13.964 13.964 0 01-4.2 2.974zM22.634 63.244L13.867 80.19c-.73 1.411.398 3.07 1.98 2.909l9.42-.961 4.695-7.681a2 2 0 013.413 2.086l-4.563 7.465 4.63 8.194c.782 1.384 2.787 1.347 3.517-.065l8.722-16.858a13.937 13.937 0 01-5.557-3.513L38.33 69.92a2 2 0 00-1.45-.607l-2.588.02c-4.839.036-9.116-2.385-11.659-6.089z" fill="#9EA3B5"/></svg>
